icons-rebrand/svg/location-regular.svg

<svg xmlns="http://www.w3.org/2000/svg" width="32" height="32" viewBox="0 0 32 32"><path d="M24.4322 6.81012C23.6124 5.41486 22.4406 4.25932 21.0341 3.45908C19.6275 2.65883 18.0355 2.24195 16.4172 2.25012H15.5832C13.9671 2.24968 12.3786 2.66959 10.9738 3.46862C9.56903 4.26765 8.39621 5.41831 7.57053 6.80761C6.74486 8.19692 6.29473 9.77708 6.26434 11.3929C6.23396 13.0088 6.62437 14.6048 7.39723 16.0241L7.39923 16.0281L14.4712 28.8411C14.6209 29.1156 14.8418 29.3448 15.1106 29.5045C15.3793 29.6642 15.6862 29.7487 15.9988 29.749C16.3115 29.7493 16.6185 29.6655 16.8876 29.5062C17.1567 29.347 17.378 29.1183 17.5282 28.8441L24.6032 16.0241C25.3841 14.6076 25.7793 13.0109 25.7493 11.3938C25.7193 9.77659 25.2651 8.19564 24.4322 6.80912V6.81012ZM23.2882 15.3031L16.2142 28.1231C16.0912 28.3441 15.9092 28.3441 15.7852 28.1201L8.71423 15.3051C8.06615 14.1142 7.73892 12.7753 7.76465 11.4197C7.79039 10.0642 8.1682 8.73862 8.861 7.57319C9.5538 6.40777 10.5378 5.44254 11.7163 4.77228C12.8948 4.10202 14.2274 3.74977 15.5832 3.75012H16.4172C17.7728 3.74991 19.1051 4.10213 20.2835 4.77221C21.4619 5.44229 22.4458 6.40722 23.1387 7.57231C23.8316 8.7374 24.2098 10.0626 24.236 11.4179C24.2622 12.7733 23.9356 14.1121 23.2882 15.3031Z M16 8.25C15.0054 8.25 14.0516 8.64509 13.3483 9.34835C12.6451 10.0516 12.25 11.0054 12.25 12C12.25 12.9946 12.6451 13.9484 13.3483 14.6517C14.0516 15.3549 15.0054 15.75 16 15.75C16.9946 15.75 17.9484 15.3549 18.6517 14.6517C19.3549 13.9484 19.75 12.9946 19.75 12C19.75 11.0054 19.3549 10.0516 18.6517 9.34835C17.9484 8.64509 16.9946 8.25 16 8.25ZM16 14.25C15.4033 14.25 14.831 14.0129 14.409 13.591C13.9871 13.169 13.75 12.5967 13.75 12C13.75 11.4033 13.9871 10.831 14.409 10.409C14.831 9.98705 15.4033 9.75 16 9.75C16.5967 9.75 17.169 9.98705 17.591 10.409C18.0129 10.831 18.25 11.4033 18.25 12C18.25 12.5967 18.0129 13.169 17.591 13.591C17.169 14.0129 16.5967 14.25 16 14.25Z"/></svg>

<svg width="32" height="32" viewBox="0 0 32 32" xmlns="http://www.w3.org/2000/svg"><path d="M24.431 6.81a9.242 9.242 0 0 0-8.014-4.56h-.834a9.318 9.318 0 0 0-8.186 13.774l.002.004 7.072 12.813a1.742 1.742 0 0 0 3.057.003l7.074-12.82a9.236 9.236 0 0 0-.17-9.215Zm-1.143 8.493-7.074 12.82c-.123.221-.305.221-.429-.003L8.714 15.305A7.818 7.818 0 0 1 15.583 3.75h.834a7.819 7.819 0 0 1 6.87 11.553Z"/><path d="M16 8.25a3.75 3.75 0 1 0 0 7.5 3.75 3.75 0 0 0 0-7.5Zm0 6a2.25 2.25 0 1 1 0-4.499 2.25 2.25 0 0 1 0 4.499Z"/></svg>
